Papirus-nordic/64x64/places/folder-red-documents-open.svg

<svg xmlns="http://www.w3.org/2000/svg" width="64" height="64"><rect width="50" height="32" x="7" y="24" rx="2.5" ry="2.5" opacity=".2"/><path d="M7 44.5C7 45.885 8.115 47 9.5 47h45c1.385 0 2.5-1.115 2.5-2.5v-27c0-1.385-1.115-2.5-2.5-2.5H29v-2.5c0-1.385-1.115-2.5-2.5-2.5h-17A2.495 2.495 0 0 0 7 12.5" fill="#ae4f58"/><rect width="50" height="28" x="7" y="26" rx="2.5" ry="2.5" opacity=".2"/><rect width="44" height="20" x="10" y="18" rx="2.5" ry="2.5" fill="#e4e4e4"/><rect width="50" height="28" x="7" y="27" rx="2.5" ry="2.5" fill="#bf616a"/><path d="M9.5 10A2.495 2.495 0 0 0 7 12.5v1C7 12.115 8.115 11 9.5 11h17c1.385 0 2.5 1.115 2.5 2.5v-1c0-1.385-1.115-2.5-2.5-2.5zM29 15v1h25.5c1.39 0 2.5 1.115 2.5 2.5v-1c0-1.385-1.11-2.5-2.5-2.5z" opacity=".1" fill="#fff"/><path d="M25.5 31c-.831 0-1.5.669-1.5 1.5v17c0 .831.669 1.5 1.5 1.5h13c.831 0 1.5-.669 1.5-1.5V36l-5-5z" fill="#974a4d"/></svg>

<svg xmlns="http://www.w3.org/2000/svg" width="64" height="64" version="1.1">
 <rect style="opacity:0.2" width="50" height="32" x="7" y="24" rx="2.5" ry="2.5"/>
 <path style="fill:#ae4f58" d="M 7,44.5 C 7,45.885 8.115,47 9.5,47 H 54.5 C 55.885,47 57,45.885 57,44.5 V 17.5 C 57,16.115 55.885,15 54.5,15 H 29 V 12.5 C 29,11.115 27.885,10 26.5,10 H 9.5 C 8.115,10 7,11.115 7,12.5"/>
 <rect style="opacity:0.2" width="50" height="28" x="7" y="26" rx="2.5" ry="2.5"/>
 <rect style="fill:#e4e4e4" width="44" height="20" x="10" y="18" rx="2.5" ry="2.5"/>
 <rect style="fill:#bf616a" width="50" height="28" x="7" y="27" rx="2.5" ry="2.5"/>
 <path style="opacity:0.1;fill:#ffffff" d="M 9.5,10 C 8.115,10 7,11.115 7,12.5 V 13.5 C 7,12.115 8.115,11 9.5,11 H 26.5 C 27.885,11 29,12.115 29,13.5 V 12.5 C 29,11.115 27.885,10 26.5,10 Z M 29,15 V 16 H 54.5 C 55.89,16 57,17.115 57,18.5 V 17.5 C 57,16.115 55.89,15 54.5,15 Z"/>
 <path style="fill:#974a4d" d="M 25.5,31 C 24.669,31 24,31.669 24,32.5 V 49.5 C 24,50.331 24.669,51 25.5,51 H 38.5 C 39.331,51 40,50.331 40,49.5 V 36 L 35,31 Z"/>
</svg>
